projects/plugins/jetpack/_inc/client/at-a-glance/security-bundle/shield-with-check.svg

<svg fill="none" height="104" viewBox="0 0 104 104" width="104" xmlns="http://www.w3.org/2000/svg"><rect fill="#2c3338" height="103.619" rx="12.1905" width="103.619" x=".19043" y=".190491"/><path clip-rule="evenodd" d="m53.2573 31.6826 18.2724 8.3056v12.3816c0 10.5546-6.7788 20.5479-16.3377 23.7005-1.2561.4143-2.6133.4143-3.8694 0-9.5589-3.1526-16.3377-13.1459-16.3377-23.7005v-12.3816zm-14.2119 10.9203v9.7669c0 8.9682 5.8069 17.2909 13.549 19.8443.4301.1418.8957.1418 1.3258 0 7.742-2.5534 13.549-10.8761 13.549-19.8443v-9.7669l-14.2119-6.46z" fill="#fff" fill-rule="evenodd"/></svg>

<svg width="104" height="104" viewBox="0 0 104 104" fill="none" xmlns="http://www.w3.org/2000/svg">
<rect x="0.19043" y="0.190491" width="103.619" height="103.619" rx="12.1905" fill="#2C3338"/>
<g style="mix-blend-mode:screen">
<path fill-rule="evenodd" clip-rule="evenodd" d="M53.2573 31.6826L71.5297 39.9882V52.3698C71.5297 62.9244 64.7509 72.9177 55.192 76.0703C53.9359 76.4846 52.5787 76.4846 51.3226 76.0703C41.7637 72.9177 34.9849 62.9244 34.9849 52.3698V39.9882L53.2573 31.6826ZM39.0454 42.6029V52.3698C39.0454 61.338 44.8523 69.6607 52.5944 72.2141C53.0245 72.3559 53.4901 72.3559 53.9202 72.2141C61.6622 69.6607 67.4692 61.338 67.4692 52.3698V42.6029L53.2573 36.1429L39.0454 42.6029Z" fill="white"/>
</g>
</svg>
